X:1
T:Is There Something I Can Do?
T:Is There Something I Can Do?
T:Victor H. Benke
T:Frances Jane (Fanny) Crosby, 1901
T:Public Domain Courtesy of the Cyber Hymnal™
C:Victor H. Benke
Z:Public Domain
Z:Courtesy of the Cyber Hymnal™
%%score 1 ( 2 3 )
L:1/8
Q:1/4=110
M:6/8
K:Bb
V:1 treble 
V:2 bass 
V:3 bass 
V:1
 [DF]2 [EG] [DF]2 [FB] | [Gc]2 [FG] [Ec]3 | [EA]2 [EA] [EG]2 [EA] | [DG]2 [DB] [DF]3 | %4
w: 1.~Sav- ior, may a|lit- tle child|In its weak- ness,|come to Thee?|
w: 2.~Tho’ my years are|on- ly few,|Glad- ly I would|work for Thee;|
w: 3.~Oft I won- der|when I hear|Old- er ones that|talk of Thee;|
w: 4.~I will give Thee|all my heart:|Wilt Thou help me|come to Thee?|
 [DF]2 [EG] [DF]2 [FB] | [Gc]2 [Ge] [EG]3 | [EF]2 [EG] [EA]2 [Fd] | [Ec]2 [DB] [DB]3 || %8
w: Thou wert ev- er|meek and mild;|Can my heart as|gen- tle be?|
w: Is there some- thing|I can do?|Can I ev- er|use- ful be?|
w: What it is Thy|yoke to bear,|Wilt Thou give it,|Lord, to me?|
w: Kind and lov- ing|as Thou art,|Sav- ior, I would|like to be.|
"^Refrain" [Fd]2 [DB] [DF]3 | [EG]2 [EB] [DF]3 | [Ec]2 [Fd] [Ec]2 [EA] | [DB]2 [EG] [DF]3 | %12
w: ||||
w: ||||
w: Teach me how,|teach me how,|By Thy Spir- it|lead me now;|
w: ||||
 [DF]2 [EG] [DF]2 [FB] | [Gc]2 [Ge] [EG]3 | [EF]2 [EA] [EB]2 [Ec] | [DB]6 |] %16
w: ||||
w: ||||
w: So my feet will|ne- ver stray|From Thy fold a-|way.|
w: ||||
V:2
 [B,,B,]2 [B,,B,] [B,,B,]2 [D,B,] | [E,B,]2 [D,=B,] [C,C]3 | [F,C]2 [F,C] [F,A,]2 [F,C] | %3
 [B,,B,]2 [B,,B,] [B,,B,]3 | [B,,B,]2 [B,,B,] [B,,B,]2 [D,B,] | [E,B,]2 [C,C] [C,C]3 | %6
 [F,A,]2 [F,B,] [F,C]2 [F,A,] | [B,,A,]2 [B,,B,] [B,,B,]3 || [B,,B,]2 [B,,B,] [B,,B,]3 | %9
 [E,B,]2 [G,B,] B,3 | [F,A,]2 [F,A,] [F,A,]2 [F,C] | [B,,B,]2 [B,,B,] [B,,B,]3 | %12
 [B,,B,]2 [B,,B,] [B,,B,]2 [D,B,] | [E,E]2 [E,C] [C,C]3 | [F,A,]2 F, [F,G,]2 [F,A,] | [B,,B,]6 |] %16
V:3
 x6 | x6 | x6 | x6 | x6 | x6 | x6 | x6 || x6 | x3 B,3 | x6 | x6 | x6 | x6 | x2 F, x3 | x6 |] %16

